X:1
T:L' Idéal
T:L' Idéal
T:Cécile Chaminade
T:René-François Sully-Prudhomme
T:OpenScore (CC0)
T:OpenScore (CC0)
T:OpenScore (CC0)
T:OpenScore (CC0)
T:OpenScore (CC0)
C:Cécile Chaminade
Z:René-François Sully-Prudhomme
Z:OpenScore (CC0)
%%score ( 1 2 ) { ( 3 6 ) | ( 4 5 ) }
L:1/8
Q:1/4=96
M:9/8
K:Ab
V:1 treble nm="Voice"
V:2 treble 
V:3 treble nm="Piano"
V:6 treble 
V:4 bass 
V:5 bass 
V:1
"^Lento. (.)" z9 | z9 | z9 | z2 z z2 z z2!mf! E |"^molto sostenuto." A2 A A3- A3 | %5
w: |||La|lune est gran- de,|
w: |||The|moon is full, _|
 A2 A !breath!A3 A2 A |!f! e3 c2 A (FG) A | B3- B2 z!mf! F3 | B B B B6 | %9
w: le ciel clair Et plein|d'as- tres, la ter- * re‿est|blê- me Et|l'â- me du mon-|
w: sky so clear Sown with|stars o'er dim Earth _ is|gleam- ing, The|soul of the world|
 (2:3:2B B B3- !breath!B2!f! B | f3 d2 B F G A | (c3 B3 A2) z | z9 | z2 z z2 z z2!mf! C | %14
w: de‿est  dans l'air, _ Je|rêve à l'é- toi- le su-|prê- * me.||A|
w: fills the air, _ Of|one star su- preme I am|dream- * ing.||A|
 G3 G2 G F G A |!<(! B6-!<)! B3 |"^cresc." B2 B B2 B A B c |!f! d6 d F2 | c2 G G3 F A B | %19
w: cel- le qu'on n'a- per- çoit|pas, _|Mais ont la lu- miè- re voy-|a- ge Et|doit ve- nir jus- qu'i- ci-|
w: star yet un- veil'd to our|sight, _|But where- from the ra- diance out-|go- ing At|length all na- tions shall re-|
 c6!f! c2 c | e2 B B3!>(! (GF)!>)! E |!>(! (F3 E3)!>)!!pp! A2 A | A3 (2:3:2A A (2:3:2A A | %23
w: bas En- chan-|ter les yeux d'un _ autre|â- ge. Quand lui-|ra cette é- toile un|
w: joice Of the|Earth with splen- dor _ o'er|flow- ing. When this|star, high and pure a-|
 A6!<(! A2 A!<)! |!f! e3 c2 A (FG) A | B3 B3 F2 F | (2:3:2B B B3 (2:3:2B B | !breath!B6!ff! B2 B | %28
w: jour, La plus|belle et la plus * loin-|tai- ne, Di- tes-|lui qu'elle eût mon a-|mour, O der-|
w: bove, Doth il-|lu- mine un- end- * ing|spa- ces, Tell it|then how true was my|love, O ye|
 f6-"^molto allarg."[Q:1/4=90] f3- | %29
w: niers _|
w: last _|
[Q:1/4=85] !breath!f3[Q:1/4=80] d2 B[Q:1/4=90]"^a tempo"[Q:1/4=90]"_a tempo" (FG) A | %30
w: _ de la ra- * ce‿hu-|
w: _ of the hu- * man|
[Q:1/4=96]"_a tempo." (c6 B3) | A3- A z z z2 z | z9 | z9 |] %34
w: mai- *|ne! *|||
w: rac- *|es! *|||
V:2
 x9 | x9 | x9 | x9 | x2 x x2 x A2 A | x9 | x9 | x9 | x9 | x9 | x9 | x9 | x9 | x9 | x9 | x9 | x9 | %17
w: |||||||||||||||||
w: ||||* the|||||||||||||
 x9 | x9 | x9 | x9 | x9 | x9 | x9 | x9 | x9 | x9 | x9 | x9 | x9 | x9 | x9 | x9 | x9 |] %34
w: |||||||||||||||||
w: |||||||||||||||||
V:3
!mf! C2 C C6 | D2 D D6 | =D2 D D6 | E2"_dim." E E6 | [C=E]3 [DF]6 |!<(! [C=E]3 [DF]3!<)! [D_F]3 | %6
!f! E6 =D3 | _D3-!>(! D3 C3!>)! |!p! [DF]3 [_G,B,E]6 | [DF]3 [_G,B,E]6 | z2 z !^![FBdf]6 | %11
 !^![F,B,DF]3 !^![G,B,DG]3 !^![A,CEA]3 |!ff! !^![c=ec']3 !^![Aca]2 [Ff] ([A,A][B,B][Cc]) | %13
 !^![EGe]3 !^![=DG=d]3 !^![CEGc]3 |!p! [G,CE]6 [G,CE]3 |!<(! [F,B,=D]6!<)! [F,B,D]3 | %16
!mf! [B,_D]6 [C_G]3 | [DF]6 [DF]3 | [C=E]6 [DF]3 | [C=E]6 [CE]3 |"_dim." [B,_E]6 C3 | %21
!>(! =D3 E3!>)!!pp! [C=E]3 | z2 z !>![A,A]6 | [DF]6!<(! [D_F]3!<)! | E6 =D3 | _D3- D3 C3 | %26
 [B,DF]3 E6 | [F,B,DF]3 [_G,B,E]6 | !^![F,B,DF]3 !^![FBdf]6- | [FBdf]6- [FBdf]3 | %30
 z2 z !^![FAdf]3 !^![GBdg]3 | !^![Aa]2 !^![Aa] !^![Ac=ea]6 | !^![Aa]2 !^![Aa] !^![Ac_fa]6 | %33
!8va(! !^![ac'e'a']3!8va)![I:staff +1] !^![C,E,A,C]3- [C,E,A,C][I:staff -1] z z |] %34
V:4
 ([C,G,]3"^molto sostenuto." [C,-A,]3 [C,=A,]3 |"^cresc." [D,B,]3 [D,-__B,]3 [D,A,]3) | %2
 ([=D,=A,]3 [D,-B,]3 [D,=B,]3 | [^F,C]3 [G,_D]6) | [=E,A,]3 [F,A,]6 | [=E,A,]3 [F,A,]3 [_F,A,]3 | %6
 [E,A,]6 [F,A,]3 | [F,A,]3 [G,B,]3 =A,3 | [F,B,]3 [E,,B,,E,]6 | [F,B,]3 [E,,B,,E,]6 | %10
!ff! z2 z !^![F,A,B,D]6 | !^![E,,,E,,]3 !^![E,,E,]3 !^![A,,,A,,]3 | %12
 !^![A,,C,=E,A,]3 !^![A,,C,F,A,]3 z2 z | [G,,,G,,]3 !^![F,G,=B,]3 !^![C,,,C,,]3 | C,6 C,3 | %15
 B,,6 B,,3 |"^cresc." [_D,F,]6 _G,3 | [F,A,]6 [F,A,]3 | [=E,G,]6 [F,A,]3 | [=E,G,]6 [E,G,]3 | %20
 [_E,G,]6 [E,A,]3 | [F,A,]3 [E,G,]3 [=E,A,]3 | [D,,,D,,]6 [=E,A,]3 | [F,A,]6 [_F,A,]3 | %24
 [E,A,]6 [=F,A,]3 | [F,A,]3 [G,B,]3 =A,3 | F,3 [_G,B,]6 | [B,,,,B,,,]3 [E,,B,,E,]6 | %28
!ff! !^![B,,,,B,,,]6- [B,,,,B,,,]3- |"^rit." [B,,,,B,,,]6- [B,,,,B,,,]3 | %30
!ff! z2 z !^![F,A,B,D]3 !^![E,,,E,,]3 | !^![A,,,A,,]3 !^![=E,A,C]6 | %32
 !^![F,,A,,C,F,]3 !^![_F,,A,,C,_F,]6 | !^![A,,,A,,]3 !^![A,,,E,,A,,]3- [A,,,E,,A,,] z z |] %34
V:5
 ([=E,,,=E,,]3 [F,,,F,,]3 [^F,,,^F,,]3 | [G,,,G,,]3 [_G,,,_G,,]3 [F,,,F,,]3) | %2
 ([^F,,,^F,,]3 [G,,,G,,]3 [^G,,,^G,,]3 | [=A,,,=A,,]3 [B,,,B,,]3 [E,,,E,,]3) | %4
 [A,,,A,,]3 [D,,D,]6 | [A,,,A,,]3 [D,,A,,D,]3 [D,,A,,D,]3 | [C,,C,]6 [_C,,_C,]3 | %7
 [B,,,B,,]3 [E,,E,]3 [F,,F,]3 | [B,,,,B,,,]3 x6 | [B,,,,B,,,]3 x6 | [B,,,B,,]6- [B,,,B,,]3 | x9 | %12
 x9 | x9 | x9 | x9 | [B,,,F,,B,,]6 [A,,,A,,]3 | [D,,,D,,]6 [D,,D,]3 | [C,,G,,C,]6 [F,,,F,,]3 | %19
 [C,,G,,C,]6 [C,,G,,C,]3 | [B,,,,B,,,]6 [B,,,B,,]3 | [B,,,B,,]3 [E,,,E,,]3 [A,,,A,,]3 | %22
 x6 [A,,,A,,]3 | [D,,,D,,]6 [D,,A,,D,]3 | [C,,A,,C,]6 [_C,,_C,]3 | [B,,,B,,]3 [E,,E,]3 [F,,F,]3 | %26
 [B,,,,B,,,]3 [E,,B,,E,]6 | x9 | z2 z !^![F,A,B,D]6- | [F,A,B,D]6- [F,A,B,D]3 | !^![E,,,E,,]6 x3 | %31
 x9 | x9 | x9 |] %34
V:6
 x9 | x9 | x9 | x9 | x9 | x9 | x9 | x9 | x9 | x9 | [F,B,DF]6- [F,B,DF]3 | x9 | x9 | x9 | x9 | x9 | %16
 x9 | x9 | x9 | x9 | x9 | x9 | [F,A,DF]6 [C=E]3 | x9 | x9 | x9 | x3 z2 z !>![B,B]3 | x9 | x9 | x9 | %30
 !^![F,A,DF]6 x3 | [ce]3 x6 | [cf]3 x6 |!8va(! x3!8va)! x6 |] %34

